X:16
T:Dieu Saint! Dieu juste et Saint - A129
C:J. Berthier
M:2/4
L:1/4
K:Eb
!segno!zG|[M:3/4]EBA/G/|FEE/D/|E"Fin"z2:|[M:2/4]zB|[M:3/4]cB/A/ G/A/|BEA/A/|
GFF/G/|[M:2/4]A/A/ A/B/|c/A/ B/c/|Bc/c/|A3/A/|G/B/ A/G/|Fz!segno!||
zE/E/|F/E/ F/G/|AG/A/|GB/B/|cG/A/|BA/G/|F/F/z!segno!||
